X:1
T: Clachnacuddin
C:
R:Strathspey
Q: 128
K:D
M:4/4
L:1/16
A,|:DD3 F3E D4 DA,3|DD3 A3D A3D Fd3|DD3 F3E D4 DEF2|G3A, F3A, E3A, CE3|
DD3 F3E D4 DA,3|DD3 A3D A3D Fd3|DD3 F3E D4 DEF2|G3A, F3A, E3A, CE3|
d3f A3f defg a3f|d3f Aa3 f3d fa3|d3f A3f defg a3f|g3A f3A e3A ce3|
d3f A3f defg a3f|d3f Aa3 f3d fa3|Bg3 Af3 Ge3 Fd3|1G3A, F3A, E3A, CE3:|2G3A, F3A, E3A, D3||
